src/assets/svg/icons/fa/nuevos/classic/duotone/magnifying-glass-chart classic duotone.svg

<svg xmlns="http://www.w3.org/2000/svg" viewBox="0 0 512 512"><!--! Font Awesome Pro 6.4.0 by @fontawesome - https://fontawesome.com License - https://fontawesome.com/license (Commercial License) Copyright 2023 Fonticons, Inc. --><defs><style>.fa-secondary{opacity:.4}</style></defs><path class="fa-primary" d="M104 216c0-13.3 10.7-24 24-24s24 10.7 24 24l0 64c0 13.3-10.7 24-24 24s-24-10.7-24-24V216zm80-96c0-13.3 10.7-24 24-24s24 10.7 24 24V280c0 13.3-10.7 24-24 24s-24-10.7-24-24l0-160zm80 64c0-13.3 10.7-24 24-24s24 10.7 24 24v96c0 13.3-10.7 24-24 24s-24-10.7-24-24V184zM457.4 502.6L330.7 376C348 363.3 363.3 348 376 330.7L502.6 457.4c12.5 12.5 12.5 32.8 0 45.3s-32.8 12.5-45.3 0z"/><path class="fa-secondary" d="M208 416A208 208 0 1 0 208 0a208 208 0 1 0 0 416zM104 216c0-13.3 10.7-24 24-24s24 10.7 24 24l0 64c0 13.3-10.7 24-24 24s-24-10.7-24-24V216zm80-96c0-13.3 10.7-24 24-24s24 10.7 24 24V280c0 13.3-10.7 24-24 24s-24-10.7-24-24V120zm80 64c0-13.3 10.7-24 24-24s24 10.7 24 24v96c0 13.3-10.7 24-24 24s-24-10.7-24-24V184z"/></svg>

<svg xmlns="http://www.w3.org/2000/svg" viewBox="0 0 512 512"><defs><style>.fa-secondary{opacity:.4}</style></defs><path class="fa-primary" d="M104 216C104 202.7 114.7 192 128 192C141.3 192 152 202.7 152 216V280C152 293.3 141.3 304 128 304C114.7 304 104 293.3 104 280V216zM184 120C184 106.7 194.7 96 208 96C221.3 96 232 106.7 232 120V280C232 293.3 221.3 304 208 304C194.7 304 184 293.3 184 280V120zM264 184C264 170.7 274.7 160 288 160C301.3 160 312 170.7 312 184V280C312 293.3 301.3 304 288 304C274.7 304 264 293.3 264 280V184zM457.4 502.6L330.7 375.1C348 363.3 363.3 348 375.1 330.7L502.6 457.4C515.1 469.9 515.1 490.1 502.6 502.6C490.1 515.1 469.9 515.1 457.4 502.6z"/><path class="fa-secondary" d="M0 208C0 93.12 93.12 0 208 0C322.9 0 416 93.12 416 208C416 322.9 322.9 416 208 416C93.12 416 0 322.9 0 208zM104 280C104 293.3 114.7 304 128 304C141.3 304 152 293.3 152 280V216C152 202.7 141.3 192 128 192C114.7 192 104 202.7 104 216V280zM184 280C184 293.3 194.7 304 208 304C221.3 304 232 293.3 232 280V120C232 106.7 221.3 96 208 96C194.7 96 184 106.7 184 120V280zM264 280C264 293.3 274.7 304 288 304C301.3 304 312 293.3 312 280V184C312 170.7 301.3 160 288 160C274.7 160 264 170.7 264 184V280z"/></svg>
